app/assets/puntdeur-rechts.svg

<svg data-name="Layer 1" xmlns="http://www.w3.org/2000/svg" width="144" height="480" viewBox="0 0 144 480">
    <title>
        puntdeur-rechts
    </title>
    <path d="M24 312h96v12H30zm96-142.8V156H30l-6 13.2z" fill="#d9ebf7"/>
    <path d="M0 168h144v144H0z" fill="#d9ebf7"/>
    <path d="M24 312H0m0-144h24m120 144h-24m0-144h24" fill="none" stroke="#9fceea" stroke-miterlimit="10" stroke-width="3"/>
    <path d="M120 312H24v12h96z" fill="#d9ebf7"/>
    <path d="M25 318l24-78h10l-24 78z" fill="#ffb612" stroke="#000" stroke-miterlimit="10"/>
    <path d="M30 324v-6h-6v-6" fill="none" stroke="#9fceea" stroke-linecap="square" stroke-linejoin="round" stroke-width="3"/>
    <path d="M25 162l24 78h10l-24-78z" fill="#ffb612" stroke="#000" stroke-miterlimit="10"/>
    <path d="M30 156v6h-6v6" fill="none" stroke="#9fceea" stroke-linecap="square" stroke-linejoin="round" stroke-width="3"/>
    <path d="M120 312v12H30m90-156v-12H30" fill="none" stroke="#7d7d7d" stroke-linecap="square" stroke-linejoin="round" stroke-width="3"/>
    <circle cx="30" cy="162" r="6" stroke="#474747" stroke-miterlimit="10" stroke-width="3"/>
    <circle cx="30" cy="318.1" r="6" stroke="#474747" stroke-miterlimit="10" stroke-width="3"/>
</svg>

<svg id="103df5f5-853c-4181-97f5-df742d89d9ac" data-name="Layer 1" xmlns="http://www.w3.org/2000/svg" width="144" height="480" viewBox="0 0 144 480">
  <title>puntdeur-rechts</title>
  <path d="M24,312h96v12H30Zm96-142.8V156H30l-6,13.2Z" fill="#d9ebf7"/>
  <path d="M0,168H144V312H0Z" fill="#d9ebf7"/>
  <path d="M24,312H0M0,168H24M144,312H120m0-144h24" fill="none" stroke="#9fceea" stroke-miterlimit="10" stroke-width="3"/>
  <path d="M120,312H24v12h96Z" fill="#d9ebf7"/>
  <path d="M25,318l24-78H59L35,318Z" fill="#ffb612" stroke="#000" stroke-miterlimit="10"/>
  <path d="M30,324v-6H24v-6" fill="none" stroke="#9fceea" stroke-linecap="square" stroke-linejoin="round" stroke-width="3"/>
  <path d="M25,162l24,78H59L35,162Z" fill="#ffb612" stroke="#000" stroke-miterlimit="10"/>
  <path d="M30,156v6H24v6" fill="none" stroke="#9fceea" stroke-linecap="square" stroke-linejoin="round" stroke-width="3"/>
  <path d="M120,312v12H30m90-156V156H30" fill="none" stroke="#7d7d7d" stroke-linecap="square" stroke-linejoin="round" stroke-width="3"/>
  <circle cx="30" cy="162" r="6" stroke="#474747" stroke-miterlimit="10" stroke-width="3"/>
  <circle cx="30" cy="318.1" r="6" stroke="#474747" stroke-miterlimit="10" stroke-width="3"/>
</svg>
